public/images/ai25.svg

<svg width="100" height="100" viewBox="0 0 100 100" fill="none" xmlns="http://www.w3.org/2000/svg">
<path d="M30.6548 65H1V36H30.6548V65Z" fill="#D00000"/>
<path d="M9.09479 58.3682C9.09479 58.3873 9.11439 58.4257 9.11439 58.4448L9.62399 58.9432C9.64359 58.9623 9.66319 58.9623 9.70239 58.9623H11.4468C11.4664 58.9623 11.5056 58.9432 11.5252 58.9432L12.0348 58.4448C12.0544 58.4257 12.0544 58.4065 12.0544 58.3682V52.9822C12.0544 52.963 12.074 52.9247 12.0936 52.9055L14.3084 50.8354C14.328 50.8163 14.3476 50.8163 14.3672 50.8354L19.9336 58.9048C19.9532 58.924 19.9728 58.9432 19.9924 58.9432H22.462C22.4816 58.9432 22.5208 58.924 22.5208 58.9048L22.9716 58.0615C22.9912 58.0423 22.9716 58.004 22.9716 57.9848L16.4056 48.7845C16.386 48.7654 16.386 48.7462 16.4056 48.727L22.4032 42.881C22.4228 42.8619 22.4228 42.8427 22.4228 42.8044V42.7085C22.4228 42.6894 22.4228 42.651 22.4032 42.6319L22.0504 41.846C22.0504 41.8268 22.0112 41.8077 21.9916 41.8077H19.5808C19.5612 41.8077 19.522 41.8268 19.5024 41.8268L12.0544 49.1296C12.0348 49.1487 12.0348 49.1487 12.0348 49.1104V42.4019C12.0348 42.3827 12.0152 42.3444 12.0152 42.3252L11.5252 41.8077C11.5056 41.7885 11.486 41.7693 11.4664 41.7693H9.72199C9.70239 41.7693 9.66319 41.7885 9.66319 41.8077L9.15359 42.3444C9.13399 42.3635 9.13399 42.3827 9.13399 42.421L9.09479 58.3682Z" fill="white"/>
<path d="M51.4504 58.464H48.9808C48.8828 58.464 48.8044 58.4257 48.7652 58.349L43.6496 51.1421L42.062 52.4072V58.1957C42.062 58.349 41.9444 58.464 41.7876 58.464H39.6316C39.4748 58.464 39.3572 58.349 39.3572 58.1957V42.5744C39.3572 42.421 39.4748 42.306 39.6316 42.306H41.7876C41.9444 42.306 42.062 42.421 42.062 42.5744V50.0304C42.8068 49.1487 43.532 48.2862 44.2572 47.4812L48.6476 42.421C48.7064 42.3635 48.7652 42.3252 48.8632 42.3252H51.2348C51.47 42.3252 51.5876 42.5935 51.4308 42.766C48.7456 45.852 46.8052 48.0754 45.6096 49.4171L51.6856 58.0806C51.8032 58.234 51.666 58.464 51.4504 58.464Z" fill="#2F2F2F"/>
<path d="M59.3296 58.694C57.3892 58.694 55.8604 58.1382 54.7628 57.0265C53.6652 55.9148 53.1164 54.3814 53.1164 52.4455C53.1164 50.4521 53.626 48.8804 54.6452 47.7304C55.6644 46.5803 57.056 46.0245 58.8396 46.0245C60.486 46.0245 61.7992 46.5228 62.74 47.5004C63.7004 48.4779 64.1708 49.8196 64.1708 51.5446V52.6755C64.1708 52.8288 64.0532 52.9438 63.8964 52.9438H55.8408C55.88 54.1322 56.2132 55.0331 56.8208 55.6848C57.448 56.3173 58.3104 56.6431 59.4276 56.6431C60.1724 56.6431 60.8584 56.5664 61.4856 56.4323C62.0148 56.3173 62.5636 56.1448 63.1712 55.9148C63.3476 55.8381 63.5436 55.9723 63.5436 56.1639V57.6973C63.5436 57.7931 63.4848 57.889 63.3868 57.9465C62.7988 58.2148 62.1912 58.4065 61.5836 58.5215C60.9368 58.6173 60.1724 58.694 59.3296 58.694ZM58.8396 47.9795C57.9968 47.9795 57.3108 48.2479 56.8208 48.7654C56.3112 49.2829 56.0172 50.0496 55.9192 51.0463H61.5836C61.564 50.0304 61.3288 49.2637 60.8388 48.7462C60.3488 48.2479 59.6824 47.9795 58.8396 47.9795Z" fill="#2F2F2F"/>
<path d="M73.5396 46.0245C73.9512 46.0245 74.304 46.0436 74.6176 46.082C74.7548 46.1011 74.8528 46.2353 74.8528 46.3695L74.6568 48.2479C74.6372 48.4012 74.5 48.5162 74.3432 48.4779C74.0492 48.4204 73.7552 48.4012 73.4612 48.4012C72.4028 48.4012 71.5404 48.7462 70.874 49.4171C70.2076 50.0879 69.894 50.9696 69.894 52.0621V58.1765C69.894 58.3298 69.7764 58.4448 69.6196 58.4448H67.5028C67.346 58.4448 67.2284 58.3298 67.2284 58.1765V46.4845C67.2284 46.3312 67.346 46.2161 67.5028 46.2161H69.0708C69.208 46.2161 69.3256 46.312 69.3452 46.4462L69.6588 48.382H69.796C70.2076 47.6537 70.7564 47.0787 71.4228 46.6378C72.05 46.2353 72.7752 46.0245 73.5396 46.0245Z" fill="#2F2F2F"/>
<path d="M85.2016 58.464C85.084 58.464 84.986 58.3873 84.9468 58.2723L84.4764 56.7581H84.3784C83.7708 57.5056 83.1632 58.004 82.5556 58.2723C81.948 58.5407 81.164 58.6748 80.2036 58.6748C78.9688 58.6748 78.0084 58.349 77.3224 57.6973C76.6364 57.0456 76.2836 56.1256 76.2836 54.9372C76.2836 53.6722 76.754 52.733 77.7144 52.0813C78.6748 51.4488 80.1252 51.0846 82.0852 51.0271L84.2412 50.9696V50.3179C84.2412 49.5321 84.0452 48.9571 83.6728 48.5737C83.3004 48.1904 82.7124 47.9987 81.948 47.9987C81.3012 47.9987 80.6936 48.0945 80.1056 48.267C79.6156 48.4204 79.1256 48.6121 78.6552 48.8037C78.518 48.8612 78.3612 48.8037 78.3024 48.6696L77.6556 47.2895C77.5968 47.1553 77.6556 47.002 77.7732 46.9445C78.3808 46.657 79.0472 46.427 79.7724 46.2737C80.576 46.1011 81.3404 46.0053 82.046 46.0053C83.6336 46.0053 84.8292 46.3503 85.6524 47.0212C86.456 47.692 86.8676 48.7654 86.8676 50.2221V58.1957C86.8676 58.349 86.75 58.464 86.5932 58.464H85.2016ZM81.0464 56.7006C82.0068 56.7006 82.7908 56.4323 83.3592 55.9148C83.9472 55.3972 84.2412 54.6497 84.2412 53.6914V52.6372L82.634 52.6947C81.3796 52.733 80.478 52.9438 79.9096 53.308C79.3412 53.6722 79.0472 54.228 79.0472 54.9756C79.0472 55.5123 79.204 55.9339 79.5372 56.2406C79.89 56.5473 80.38 56.7006 81.0464 56.7006Z" fill="#2F2F2F"/>
<path d="M99 54.9756C99 56.1639 98.5492 57.084 97.6672 57.7165C96.7852 58.349 95.5112 58.6748 93.8452 58.6748C92.2576 58.6748 90.9836 58.4448 89.984 58.004C89.886 57.9657 89.8272 57.8698 89.8272 57.774V56.1064C89.8272 55.9148 90.0232 55.7806 90.1996 55.8573C91.5324 56.4131 92.7672 56.6814 93.9236 56.6814C95.5504 56.6814 96.3736 56.2023 96.3736 55.2247C96.3736 54.9181 96.2756 54.6497 96.0992 54.4581C95.9228 54.2472 95.6288 54.0364 95.1976 53.8255C94.786 53.5955 94.198 53.3464 93.4728 53.078C92.042 52.5413 91.062 51.9855 90.5524 51.4488C90.0428 50.9121 89.788 50.2029 89.788 49.3212C89.788 48.267 90.2192 47.462 91.0816 46.887C91.944 46.312 93.12 46.0245 94.6096 46.0245C95.9816 46.0245 97.2948 46.2736 98.5296 46.7912C98.6668 46.8487 98.7256 47.002 98.6668 47.1362L98.02 48.612C97.9612 48.7462 97.8044 48.8037 97.6672 48.7462C96.4324 48.267 95.374 48.0179 94.5116 48.0179C93.12 48.0179 92.4144 48.4012 92.4144 49.1871C92.4144 49.5704 92.5908 49.8963 92.9632 50.1646C93.3356 50.4329 94.1196 50.7971 95.3544 51.2571C96.3932 51.6405 97.138 52.0046 97.6084 52.3305C98.0788 52.6563 98.4316 53.0205 98.6472 53.4614C98.8824 53.883 99 54.4005 99 54.9756Z" fill="#2F2F2F"/>
</svg>

<svg xmlns="http://www.w3.org/2000/svg" width="100" height="100" fill="none"><path fill="#D00000" d="M30.655 65H1V36h29.655z"/><path fill="#fff" d="M9.095 58.368c0 .02.02.058.02.077l.509.498c.02.02.04.02.078.02h1.745c.02 0 .059-.02.078-.02l.51-.498c.02-.02.02-.038.02-.077v-5.386c0-.019.019-.057.039-.076l2.214-2.07q.03-.03.06 0l5.566 8.069c.02.019.039.038.058.038h2.47c.02 0 .059-.019.059-.038l.45-.843c.02-.02 0-.058 0-.077l-6.565-9.2q-.03-.03 0-.058l5.997-5.846c.02-.02.02-.038.02-.077v-.096c0-.019 0-.057-.02-.076l-.353-.786c0-.02-.039-.038-.058-.038H19.58c-.02 0-.059.019-.079.019l-7.448 7.303c-.02.019-.02.019-.02-.02v-6.708c0-.02-.019-.058-.019-.077l-.49-.517c-.02-.02-.039-.039-.059-.039H9.722c-.02 0-.059.02-.059.039l-.51.536c-.019.02-.019.039-.019.077z"/><path fill="#2F2F2F" d="M51.45 58.464h-2.47c-.097 0-.176-.038-.215-.115l-5.115-7.207-1.588 1.265v5.789a.265.265 0 0 1-.274.268h-2.156a.265.265 0 0 1-.275-.268V42.574c0-.153.118-.268.275-.268h2.156c.156 0 .274.115.274.268v7.456c.745-.881 1.47-1.744 2.195-2.549l4.39-5.06a.28.28 0 0 1 .216-.096h2.372c.235 0 .353.268.196.441a899 899 0 0 1-5.821 6.651l6.076 8.664c.117.153-.02.383-.236.383M59.33 58.694c-1.94 0-3.47-.556-4.567-1.668-1.098-1.111-1.647-2.645-1.647-4.58q0-2.991 1.53-4.716c1.018-1.15 2.41-1.705 4.194-1.705 1.646 0 2.96.498 3.9 1.475.96.978 1.43 2.32 1.43 4.045v1.13a.265.265 0 0 1-.274.269h-8.055c.039 1.188.372 2.09.98 2.74.627.633 1.49.96 2.607.96.744 0 1.43-.078 2.058-.212.529-.115 1.078-.287 1.685-.517a.27.27 0 0 1 .373.249v1.533a.3.3 0 0 1-.157.25 8 8 0 0 1-1.803.575 15.4 15.4 0 0 1-2.254.172m-.49-10.715c-.843 0-1.53.269-2.02.786-.509.518-.803 1.285-.9 2.281h5.664c-.02-1.016-.255-1.782-.745-2.3-.49-.498-1.157-.767-2-.767M73.54 46.025c.411 0 .764.019 1.078.057.137.02.235.153.235.288l-.196 1.878c-.02.153-.157.268-.314.23a4.6 4.6 0 0 0-.882-.077c-1.058 0-1.92.345-2.587 1.016-.666.67-.98 1.553-.98 2.645v6.115a.265.265 0 0 1-.274.268h-2.117a.265.265 0 0 1-.275-.269V46.485c0-.153.118-.268.275-.268h1.568c.137 0 .255.096.274.23l.314 1.936h.137a5 5 0 0 1 1.627-1.744 3.9 3.9 0 0 1 2.117-.613M85.202 58.464a.27.27 0 0 1-.255-.192l-.47-1.514h-.099c-.607.748-1.215 1.246-1.822 1.514q-.912.403-2.352.403-1.853 0-2.882-.978c-.686-.651-1.038-1.571-1.038-2.76 0-1.265.47-2.204 1.43-2.856.96-.632 2.411-.996 4.371-1.054l2.156-.057v-.652c0-.786-.196-1.36-.568-1.744-.373-.384-.96-.575-1.725-.575-.647 0-1.254.095-1.842.268-.49.153-.98.345-1.45.537a.27.27 0 0 1-.354-.134l-.646-1.38a.267.267 0 0 1 .117-.346 9 9 0 0 1 2-.67c.803-.173 1.567-.269 2.273-.269 1.588 0 2.783.345 3.606 1.016.804.671 1.216 1.744 1.216 3.201v7.974a.265.265 0 0 1-.275.268zm-4.156-1.763c.96 0 1.745-.269 2.313-.786.588-.518.882-1.265.882-2.224v-1.054l-1.607.058c-1.254.038-2.156.249-2.724.613s-.863.92-.863 1.668c0 .536.157.958.49 1.265.353.306.843.46 1.51.46M99 54.976c0 1.188-.45 2.108-1.333 2.74-.882.633-2.156.959-3.822.959-1.587 0-2.861-.23-3.861-.671a.25.25 0 0 1-.157-.23v-1.668c0-.191.196-.325.373-.249 1.332.556 2.567.824 3.724.824 1.626 0 2.45-.479 2.45-1.456 0-.307-.098-.575-.275-.767-.176-.21-.47-.422-.901-.633-.412-.23-1-.479-1.725-.747-1.431-.537-2.411-1.093-2.92-1.63q-.765-.804-.765-2.127c0-1.054.431-1.859 1.294-2.434q1.293-.862 3.528-.862c1.372 0 2.685.249 3.92.766.137.058.196.211.137.345l-.647 1.476c-.059.134-.216.192-.353.134-1.235-.479-2.293-.728-3.155-.728-1.392 0-2.098.383-2.098 1.17 0 .382.177.708.55.977.372.268 1.156.632 2.39 1.092 1.04.384 1.784.748 2.254 1.074.47.325.824.69 1.04 1.13.234.422.352.94.352 1.515"/></svg>
